svg/u1f37f.svg

<svg viewBox="0 0 128 128" xmlns="http://www.w3.org/2000/svg">
  <path d="M20.71,44.56l-6.52-5.93c0,0-0.27-2.95,2.04-3.89c2.63-1.07,5.16,0.19,5.16,0.19l3.99,7.68 L20.71,44.56z" fill="#B40E1C"/>
  <path d="M106.7,44.76l-5.64-4.47l3.79-5.54c0,0,1.96-1.59,5.35,0.1c2.59,1.29,3.23,3.79,2.93,4.56 C112.84,40.18,106.7,44.76,106.7,44.76z" fill="#B40E1C"/>
  <path d="M22.75,43.49l-3.15-0.85c0,0-0.36-1.49,0.32-2.81c0.71-1.37,2.1-1.22,2.1-1.22s-3.35-1.63-1.89-5.62 s5.93-3.11,5.93-3.11s-0.1-2.53,1.95-4.09c2.04-1.56,3.6-0.39,3.6-0.39s-1.58-5.05,2.33-7.39c3.34-2,5.64-0.1,5.64-0.1 s1.35-3.38,5.05-3.45c2.77-0.05,3.61,1.02,3.61,1.02s0.97-1.95,2.53-2.82c1.56-0.88,2.49-0.75,2.49-0.75s-0.71-2.42,0.04-4.4 c1.32-3.5,4.96-4.28,7.68-3.6c3.73,0.93,3.27,3.51,3.27,3.51s1.89-1.27,3.64-1.07c1.75,0.19,2.67,1.35,2.67,1.35s1.22-3.58,5.3-3.58 c4.09,0,5.25,2.43,5.45,4.28s-1.03,4.03-1.03,4.03s0.59,0.23,0.77,1.63c0.14,1.06-0.27,2-0.27,2s1.88-1.48,5.63,0 c6.22,2.45,4.92,9.07,4.92,9.07s1.8-0.21,3.16,0.37c1.56,0.67,2.28,1.77,2.28,1.77s0.35-2.9,3.99-2.92c3.8-0.02,6.91,7.1,6.23,9.14 c-0.68,2.04-2.53,2.53-2.53,2.53s1.69,0.48,2.32,2.53c0.75,2.42,0.13,4.99,0.13,4.99S80.53,59.64,80.24,59.54 s-32.98,2.43-32.98,2.43L22.75,43.49z" fill="#FFB91F"/>
  <path d="M34.84,48.47c0-0.21,0.3-1.08,0.89-1.46c0.73-0.47,1.82-0.52,1.82-0.52s-1.2-0.57-1.87-2.45 c-0.44-1.22,0.1-2.54,0.1-2.54s-3.17,0.15-3.9-2.25s0.42-2.71,0.42-2.71s-1.27-6.81,4.06-6.93c7.29-0.16,6.04,9.11,6.04,9.11 s1.04,0,1.67,0.57c0.62,0.57,0.83,1.15,0.83,1.15s1.36-2.05,4.58-1.56c7.6,1.15,4.06,8.59,4.06,8.59s-1.41-3.85-3.85-4.01 c-2.45-0.16-5.47,1.51-5.47,1.51s4.63,0.57,5.88,3.02c1.25,2.45,1.15,5.78,1.15,5.78s-9.27,2.71-9.48,2.4 C41.55,55.87,34.84,48.47,34.84,48.47z" fill="#FCE193"/>
  <path d="M40.61,40.35c-0.67-0.29-2.55,1.36-2.59,2.59c-0.04,1.23,1,2.8,2.24,2.91 c1.23,0.11,2.46-1.16,2.46-2.39C42.72,42.84,41.44,40.71,40.61,40.35z" fill="#E17A2C"/>
  <path d="M46.27,26.55c0,0-4.99-0.72-4.89,3.4c0.13,5.46,6.28,4.65,6.33,4.94c0.05,0.29,0.3,2.15,0.3,2.15 s2.43-0.28,4.78,1.11s3.36,3.02,3.36,3.02s0.48-2.25,1.15-3.21c0.67-0.96,1.39-1.68,1.39-1.68s0-1.2-0.34-2.16 c-0.24-0.69-0.81-1.05-0.81-1.05s5.4-2.56,2.68-6.81c-3.07-4.79-7.96-0.34-7.96-0.34s-1.92-2.78-4.31-2.11 C45.55,24.48,46.27,26.55,46.27,26.55z" fill="#FCE193"/>
  <path d="M58.54,44.52c0,0-1.44-4.94,1.25-6.33s4.46,0.19,4.55-0.1s4.27-4.75,7.86-4.65 c5.32,0.14,6.54,3.52,6.66,3.88c0.59,1.72-0.19,4.51-0.19,4.51s2.01-3.12,4.89-2.83c2.88,0.29,3.2,2.59,3.2,2.59 s3.18,1.97,3.03,3.84c-0.14,1.87-2.16,3.26-2.16,3.26l-4.89,4.79l-5.27-1.82c0,0-0.72-2.4-0.72-3.88c0-1.49,0.14-2.68,0.14-2.68 s-1.44,0.77-2.44,1.05c-1.01,0.29-3.12,0.34-3.12,0.34s-0.08-1.21-2.11-2.59C64.77,40.88,58.54,44.52,58.54,44.52z" fill="#FCE193"/>
  <path d="M60.65,51.18c0,0-1.63-5.92,3.07-6.04c5.61-0.14,6.42,4.84,6.62,7.62c0.19,2.78-7.24,7.05-7.53,6.9 c-0.29-0.14-7.25-4.42-7.25-4.42s-0.53-1.54,0.64-2.91C57.42,50.88,60.65,51.18,60.65,51.18z" fill="#FCE193"/>
  <path d="M91.86,48.45c0,0-1.63-1.34-1.15-3.88c0.48-2.54,2.44-2.68,2.44-2.68s-1.49-2.3-0.77-3.79 s1.87-1.82,5.56-1.77s5.56,1.05,6.76,2.35c1.08,1.16,0.38,4.7,0.38,4.7s-5.46,6.57-6.09,6.42C98.37,49.65,91.86,48.45,91.86,48.45z" fill="#FCE193"/>
  <path d="M76.56,31.34c0,0,1.92,1.2,2.54,2.11c0.62,0.91,1.44,2.64,1.44,2.64s0.4-4.68,2.33-6.96 c2.11-2.49,4.86-2.39,4.91-2.39c0.52,0,1.39-3.88-0.62-5.94c-2.52-2.58-6.85-1.68-6.81-1.29s1.58,2.25,0.58,6.57 C80,30.02,76.56,31.34,76.56,31.34z" fill="#FCE193"/>
  <path d="M63.14,32.25c0.77,0.39,2.14-0.9,3.31-1.44c1.34-0.62,3.07-0.86,3.12-1.53s-1.87-3.07-4.65-1.73 C62.14,28.89,62.28,31.82,63.14,32.25z" fill="#FCE193"/>
  <path d="M21.82,34.57c-0.24,2.44,2.25,3.2,2.25,3.2s-0.31,2.25,0.58,3.55c0.72,1.05,2.21,2.35,2.83,2.21 c0.62-0.14,2.59-2.01,2.59-2.16c0-0.14-0.11-5.51-1.25-7.43C27.24,31.24,22.25,30.24,21.82,34.57z" fill="#FCE193"/>
  <path d="M30.55,31.34c0.67,0,1.34-1.53,1.73-2.11c0.38-0.58,1.82-1.53,1.82-1.53s-2.21-1.53-3.6-0.14 C29.11,28.94,29.54,31.34,30.55,31.34z" fill="#FCE193"/>
  <path d="M35.91,26.98c0,0,1.34-0.14,2.11-0.1c0.77,0.05,2.06,0.29,2.06,0.29s0.19-1.25,1.58-2.16 c1.39-0.91,2.68-0.62,2.68-0.62s0.29-1.73,1.39-2.49c1.1-0.77,1.77-0.77,1.77-0.77s1.02-2.62-0.48-3.6 c-4.27-2.78-6.46,2.8-7.19,2.92c-0.54,0.09-2.42-1.78-4.48-0.34C31.85,22.57,35.91,26.98,35.91,26.98z" fill="#FCE193"/>
  <path d="M49.43,20.7c0,0,1.15,0.29,2.01,0.81s2.16,1.44,2.16,1.44l6.33-0.19c0,0,1.39-1.82,3.4-2.64 c1.64-0.67,3.55-0.72,3.55-0.72s0.18-4.68-3.69-5.9c-4.89-1.53-6.52,3.45-6.52,3.45s-1.44-1.62-3.12-1.58 C49.82,15.47,49.43,20.7,49.43,20.7z" fill="#FCE193"/>
  <path d="M56.57,19.02c-0.58,0-3.98,2.92-4.07,3.21c-0.1,0.29,0.81,0.77,0.91,1.05 c0.1,0.29,6.23-0.38,6.57-0.62C60.31,22.42,57.87,19.02,56.57,19.02z" fill="#E17A2C"/>
  <path d="M48.91,28.89c0.03,0.57,2.83,4.31,3.69,4.46s3.7-3.02,2.88-3.74c-0.38-0.34-3.21,0.05-3.21,0.05 s-0.05-2.11-0.29-2.44C51.73,26.88,48.86,27.94,48.91,28.89z" fill="#E17A2C"/>
  <path d="M55.86,12.5c0.73,0.02,1.39-2.68,2.25-3.55s2.92-1.73,2.44-3.07s-4.17-0.96-5.37,1.01 C53.85,9.08,54.27,12.45,55.86,12.5z" fill="#FCE193"/>
  <path d="M66.07,11.78c0.15,0.66,2.01,1.44,2.3,1.77c0.29,0.34,1.63,1.53,1.63,1.53s3.07-0.77,4.89-0.29 c1.82,0.48,2.68,1.77,3.21,1.44c0.53-0.34,0.24-1.77-0.05-2.25c-0.29-0.48-0.86-1.39-0.86-1.39s2.76-4.28-0.1-4.99 c-4.07-1.01-4.89,3.12-5.42,3.21s-2.06-1.53-3.74-1.29C66.26,9.77,65.87,10.92,66.07,11.78z" fill="#FCE193"/>
  <path d="M68.37,24.1c0.68,1.51,2.83,1.63,2.83,1.63s1.05,3.36,3.21,3.64c2.16,0.29,3.58-1.96,4.03-3.83 c0.58-2.4,0.59-7.59-4.75-7.53C69.66,18.06,67.94,23.14,68.37,24.1z" fill="#FCE193"/>
  <path d="M89.55,41.21c0.67-0.02,0.22-3.96,2.34-5.56c2.29-1.73,4.08-1.41,6.43-1.25 c2.44,0.16,4.09,0.92,4.6,0.24c0.64-0.84,1.03-6.7-2.3-7.19c-1.97-0.29-2.49,1.63-2.49,1.63s-2.01-0.43-3.12,1.58 c-0.76,1.39-0.81,2.3-1.15,2.4c-0.15,0.04-5.29-7.9-9.3-3.07c-4.17,5.03,3.45,9.2,3.45,9.2S88.26,41.26,89.55,41.21z" fill="#FCE193"/>
  <path d="M74.36,18.88c-0.27,0.18-0.38,4.84-0.14,4.89c0.24,0.05,3.26,1.68,3.69,1.25 c0.43-0.43,0.43-2.64-0.34-4.07C77.09,20.03,75.32,18.25,74.36,18.88z" fill="#E17A2C"/>
  <path d="M67.98,13.03c-0.04,0.49,0.62,3.07,1.39,3.16c1.28,0.16,3.64-1.2,3.88-1.68s-0.19-1.87-2.11-2.35 C69.24,11.69,68.03,12.36,67.98,13.03z" fill="#E17A2C"/>
  <path d="M68.46,42.22c0.67,0.72,2.99-1.24,3.83-0.86c0.96,0.43,0,2.92,1.05,3.21 c1.05,0.29,3.16-3.12,2.92-4.6c-0.1-0.62-1.34-1.44-2.68-1.92c-1.34-0.48-3.16-0.81-3.98-0.29S67.26,40.93,68.46,42.22z" fill="#E17A2C"/>
  <path d="M96.5,45.67c0,0-0.1-3.07,0.72-4.6c0.81-1.53,2.88-1.29,3.21-0.91s1.49,3.16,1.49,3.16l-2.44,4.17 L96.5,45.67z" fill="#E17A2C"/>
  <path d="M63.35,61.35l-9.56-3.74l-0.27-0.42c-0.48-0.75-6.78-1.76-6.78-1.76l-0.56-0.11l-7.85-1.69 l-0.22-0.38c-0.49-0.83-6.81-3.08-6.81-3.08l-5.94-2.4l-0.16-0.39c-0.53-1.27-4.55-3.47-4.64-3.29l-1.79-0.89 c0.47-0.95,1.96-2.52,4.22-1.61c1.97,0.79,4.22,3.52,4.71,4.6l3.23,1.67c0.79-0.5,2.28-1,4.32-0.29c2.96,1.04,3.74,3.33,4.35,4.28 l6.5,1.4c0.69-0.56,2.15-1.5,4.1-1.18c3.41,0.56,4.24,2.53,4.95,3.53l7.49,0.64c0.75-1.03,2.66-3.21,5.63-3.62 c2.78-0.39,4.81,0.57,5.63,1.53l7.16-2.41c0.6-0.93,2.67-3.56,5.91-4.15c3.02-0.55,5.39,0.98,6.48,1.67l4.78-2.45 c0.51-0.86,2.16-3.54,4.68-4.31c3.15-0.95,5.17,1.04,5.26,1.11l-1.35,1.48c-0.04-0.04-6.61,3.69-6.63,3.72l-1.41,2.43l-5.52,0.36 l-0.5-0.4c-0.02-0.02-10.13,1.81-10.15,1.84l-0.19,0.35l-9.04,3.04l-0.44-0.47C72.88,55.9,63.35,61.35,63.35,61.35z" fill="#DFDFDF"/>
  <path d="M107.72,46.58c-0.23,0.02-2.11-2.62-4.56-1.6c-2.45,1.03-4.79,5.24-4.79,5.24l-7.63,1.2 c0,0-1.03-2.08-3.88-1.28c-2.85,0.8-5.41,4.3-5.47,4.07c-0.06-0.23-8.4,1.9-8.4,1.9s-1.65-1.84-4.59-1.11 c-3.04,0.76-4.69,4.49-4.69,4.49l-9.47-1.88c0,0-1.62-2.72-4.07-3.06c-2.45-0.34-4.04,1.26-4.04,1.26l-7.07-1.72 c0,0-1.08-2.96-4.16-3.99s-4.56,0.28-4.56,0.28l-4.58-3.11c0,0-1.35-2.22-3.92-3.42c-2.56-1.2-3.3,0.9-3.3,0.9l15.96,67.15 l30.56,12.43l30.17-13.21C95.25,111.13,108.41,46.51,107.72,46.58z" fill="#FFFFFF"/>
  <path d="M20.71,44.56l-0.02-0.07c-0.28-1.31-1.01-4.28-2.74-5.63c-2.25-1.75-3.76-0.24-3.76-0.24l17.35,72.18 l4.24,1.62L20.71,44.56z" fill="#ED3D23"/>
  <path d="M31.96,49.98c0,0-0.27-4.51-3.83-5.58c-2.83-0.85-2.95,2.06-2.95,2.06l14.07,67.39l5.37,2.16 L31.96,49.98z" fill="#ED3D23"/>
  <path d="M47.06,55.19c0,0-1.45-4.85-5.14-5.26c-3.69-0.41-3.32,2.69-3.32,2.69l9.55,64.86l5.37,2.18 L47.06,55.19z" fill="#ED3D23"/>
  <path d="M58.79,53.82c-4.05-0.51-4.61,3.56-4.61,3.56l4.19,64.26l6.72,2.7l-1.2-65.18 C63.89,59.16,63.04,54.36,58.79,53.82z" fill="#ED3D23"/>
  <path d="M82.04,54.07c0,0,0.21-5.1-4.35-3.81c-4.56,1.28-5.06,5.55-5.06,5.55l-1.14,65.75l5.66-2.51 L82.04,54.07z" fill="#ED3D23"/>
  <g>
    <path d="M98.95,48.6c0,0-0.19-4-4.1-3.19c-4.1,0.84-4.14,4.97-4.14,4.97l-7.19,65.93l5.46-2.41L98.95,48.6z" fill="#ED3D23"/>
    <path d="M109.39,39.02c-3.36,1.61-3.65,5.93-3.65,5.93l-11.45,66.62l5.37-2.38l13.51-69.84 C113.16,39.35,112.33,37.61,109.39,39.02z" fill="#ED3D23"/>
  </g>
</svg>

<svg viewBox="0 0 128 128" xmlns="http://www.w3.org/2000/svg">
  <defs/>
  <path d="M20.71,44.56 L14.19,38.63 C14.19,38.63 13.92,35.68 16.23,34.74 C18.86,33.67 21.39,34.93 21.39,34.93 L25.38,42.61 L20.71,44.56 Z" fill="#B40E1C"/>
  <path d="M106.7,44.76 L101.06,40.29 L104.85,34.75 C104.85,34.75 106.81,33.16 110.2,34.85 C112.79,36.14 113.43,38.64 113.13,39.41 C112.84,40.18 106.7,44.76 106.7,44.76 Z" fill="#B40E1C"/>
  <path d="M22.75,43.49 L19.6,42.64 C19.6,42.64 19.24,41.15 19.92,39.83 C20.63,38.46 22.02,38.61 22.02,38.61 C22.02,38.61 18.67,36.98 20.13,32.99 C21.59,29 26.06,29.88 26.06,29.88 C26.06,29.88 25.96,27.35 28.01,25.79 C30.05,24.23 31.61,25.4 31.61,25.4 C31.61,25.4 30.03,20.35 33.94,18.01 C37.28,16.01 39.58,17.91 39.58,17.91 C39.58,17.91 40.93,14.53 44.63,14.46 C47.4,14.41 48.24,15.48 48.24,15.48 C48.24,15.48 49.21,13.53 50.77,12.66 C52.33,11.78 53.26,11.91 53.26,11.91 C53.26,11.91 52.55,9.49 53.3,7.51 C54.62,4.01 58.26,3.23 60.98,3.91 C64.71,4.84 64.25,7.42 64.25,7.42 C64.25,7.42 66.14,6.15 67.89,6.35 C69.64,6.54 70.56,7.7 70.56,7.7 C70.56,7.7 71.78,4.12 75.86,4.12 C79.95,4.12 81.11,6.55 81.31,8.4 C81.51,10.25 80.28,12.43 80.28,12.43 C80.28,12.43 80.87,12.66 81.05,14.06 C81.19,15.12 80.78,16.06 80.78,16.06 C80.78,16.06 82.66,14.58 86.41,16.06 C92.63,18.51 91.33,25.13 91.33,25.13 C91.33,25.13 93.13,24.92 94.49,25.5 C96.05,26.17 96.77,27.27 96.77,27.27 C96.77,27.27 97.12,24.37 100.76,24.35 C104.56,24.33 107.67,31.45 106.99,33.49 C106.31,35.53 104.46,36.02 104.46,36.02 C104.46,36.02 106.15,36.5 106.78,38.55 C107.53,40.97 106.91,43.54 106.91,43.54 C106.91,43.54 80.53,59.64 80.24,59.54 C79.95,59.44 47.26,61.97 47.26,61.97 L22.75,43.49 Z" fill="#FFB91F"/>
  <path d="M34.84,48.47 C34.84,48.26 35.14,47.39 35.73,47.01 C36.46,46.54 37.55,46.49 37.55,46.49 C37.55,46.49 36.35,45.92 35.68,44.04 C35.24,42.82 35.78,41.5 35.78,41.5 C35.78,41.5 32.61,41.65 31.88,39.25 C31.15,36.85 32.3,36.54 32.3,36.54 C32.3,36.54 31.03,29.73 36.36,29.61 C43.65,29.45 42.4,38.72 42.4,38.72 C42.4,38.72 43.44,38.72 44.07,39.29 C44.69,39.86 44.9,40.44 44.9,40.44 C44.9,40.44 46.26,38.39 49.48,38.88 C57.08,40.03 53.54,47.47 53.54,47.47 C53.54,47.47 52.13,43.62 49.69,43.46 C47.24,43.3 44.22,44.97 44.22,44.97 C44.22,44.97 48.85,45.54 50.1,47.99 C51.35,50.44 51.25,53.77 51.25,53.77 C51.25,53.77 41.98,56.48 41.77,56.17 C41.55,55.87 34.84,48.47 34.84,48.47 Z" fill="#FCE193"/>
  <path d="M40.61,40.35 C39.94,40.06 38.06,41.71 38.02,42.94 C37.98,44.17 39.02,45.74 40.26,45.85 C41.49,45.96 42.72,44.69 42.72,43.46 C42.72,42.84 41.44,40.71 40.61,40.35 Z" fill="#E17A2C"/>
  <path d="M46.27,26.55 C46.27,26.55 41.28,25.83 41.38,29.95 C41.51,35.41 47.66,34.6 47.71,34.89 C47.76,35.18 48.01,37.04 48.01,37.04 C48.01,37.04 50.44,36.76 52.79,38.15 C55.14,39.54 56.15,41.17 56.15,41.17 C56.15,41.17 56.63,38.92 57.3,37.96 C57.97,37 58.69,36.28 58.69,36.28 C58.69,36.28 58.69,35.08 58.35,34.12 C58.11,33.43 57.54,33.07 57.54,33.07 C57.54,33.07 62.94,30.51 60.22,26.26 C57.15,21.47 52.26,25.92 52.26,25.92 C52.26,25.92 50.34,23.14 47.95,23.81 C45.55,24.48 46.27,26.55 46.27,26.55 Z" fill="#FCE193"/>
  <path d="M58.54,44.52 C58.54,44.52 57.1,39.58 59.79,38.19 C62.48,36.8 64.25,38.38 64.34,38.09 C64.43,37.8 68.61,33.34 72.2,33.44 C77.52,33.58 78.74,36.96 78.86,37.32 C79.45,39.04 78.67,41.83 78.67,41.83 C78.67,41.83 80.68,38.71 83.56,39 C86.44,39.29 86.76,41.59 86.76,41.59 C86.76,41.59 89.94,43.56 89.79,45.43 C89.65,47.3 87.63,48.69 87.63,48.69 L82.74,53.48 L77.47,51.66 C77.47,51.66 76.75,49.26 76.75,47.78 C76.75,46.29 76.89,45.1 76.89,45.1 C76.89,45.1 75.45,45.87 74.45,46.15 C73.44,46.44 71.33,46.49 71.33,46.49 C71.33,46.49 71.25,45.28 69.22,43.9 C64.77,40.88 58.54,44.52 58.54,44.52 Z" fill="#FCE193"/>
  <path d="M60.65,51.18 C60.65,51.18 59.02,45.26 63.72,45.14 C69.33,45 70.14,49.98 70.34,52.76 C70.53,55.54 63.1,59.81 62.81,59.66 C62.52,59.52 55.56,55.24 55.56,55.24 C55.56,55.24 55.03,53.7 56.2,52.33 C57.42,50.88 60.65,51.18 60.65,51.18 Z" fill="#FCE193"/>
  <path d="M91.86,48.45 C91.86,48.45 90.23,47.11 90.71,44.57 C91.19,42.03 93.15,41.89 93.15,41.89 C93.15,41.89 91.66,39.59 92.38,38.1 C93.1,36.61 94.25,36.28 97.94,36.33 C101.63,36.38 103.5,37.38 104.7,38.68 C105.78,39.84 105.08,43.38 105.08,43.38 C105.08,43.38 99.62,49.95 98.99,49.8 C98.37,49.65 91.86,48.45 91.86,48.45 Z" fill="#FCE193"/>
  <path d="M76.56,31.34 C76.56,31.34 78.48,32.54 79.1,33.45 C79.72,34.36 80.54,36.09 80.54,36.09 C80.54,36.09 80.94,31.41 82.87,29.13 C84.98,26.64 87.73,26.74 87.78,26.74 C88.3,26.74 89.17,22.86 87.16,20.8 C84.64,18.22 80.31,19.12 80.35,19.51 C80.39,19.9 81.93,21.76 80.93,26.08 C80,30.02 76.56,31.34 76.56,31.34 Z" fill="#FCE193"/>
  <path d="M63.14,32.25 C63.91,32.64 65.28,31.35 66.45,30.81 C67.79,30.19 69.52,29.95 69.57,29.28 C69.62,28.61 67.7,26.21 64.92,27.55 C62.14,28.89 62.28,31.82 63.14,32.25 Z" fill="#FCE193"/>
  <path d="M21.82,34.57 C21.58,37.01 24.07,37.77 24.07,37.77 C24.07,37.77 23.76,40.02 24.65,41.32 C25.37,42.37 26.86,43.67 27.48,43.53 C28.1,43.39 30.07,41.52 30.07,41.37 C30.07,41.23 29.96,35.86 28.82,33.94 C27.24,31.24 22.25,30.24 21.82,34.57 Z" fill="#FCE193"/>
  <path d="M30.55,31.34 C31.22,31.34 31.89,29.81 32.28,29.23 C32.66,28.65 34.1,27.7 34.1,27.7 C34.1,27.7 31.89,26.17 30.5,27.56 C29.11,28.94 29.54,31.34 30.55,31.34 Z" fill="#FCE193"/>
  <path d="M35.91,26.98 C35.91,26.98 37.25,26.84 38.02,26.88 C38.79,26.93 40.08,27.17 40.08,27.17 C40.08,27.17 40.27,25.92 41.66,25.01 C43.05,24.1 44.34,24.39 44.34,24.39 C44.34,24.39 44.63,22.66 45.73,21.9 C46.83,21.13 47.5,21.13 47.5,21.13 C47.5,21.13 48.52,18.51 47.02,17.53 C42.75,14.75 40.56,20.33 39.83,20.45 C39.29,20.54 37.41,18.67 35.35,20.11 C31.85,22.57 35.91,26.98 35.91,26.98 Z" fill="#FCE193"/>
  <path d="M49.43,20.7 C49.43,20.7 50.58,20.99 51.44,21.51 C52.3,22.03 53.6,22.95 53.6,22.95 L59.93,22.76 C59.93,22.76 61.32,20.94 63.33,20.12 C64.97,19.45 66.88,19.4 66.88,19.4 C66.88,19.4 67.06,14.72 63.19,13.5 C58.3,11.97 56.67,16.95 56.67,16.95 C56.67,16.95 55.23,15.33 53.55,15.37 C49.82,15.47 49.43,20.7 49.43,20.7 Z" fill="#FCE193"/>
  <path d="M56.57,19.02 C55.99,19.02 52.59,21.94 52.5,22.23 C52.4,22.52 53.31,23 53.41,23.28 C53.51,23.57 59.64,22.9 59.98,22.66 C60.31,22.42 57.87,19.02 56.57,19.02 Z" fill="#E17A2C"/>
  <path d="M48.91,28.89 C48.94,29.46 51.74,33.2 52.6,33.35 C53.46,33.5 56.3,30.33 55.48,29.61 C55.1,29.27 52.27,29.66 52.27,29.66 C52.27,29.66 52.22,27.55 51.98,27.22 C51.73,26.88 48.86,27.94 48.91,28.89 Z" fill="#E17A2C"/>
  <path d="M55.86,12.5 C56.59,12.52 57.25,9.82 58.11,8.95 C58.97,8.08 61.03,7.22 60.55,5.88 C60.07,4.54 56.38,4.92 55.18,6.89 C53.85,9.08 54.27,12.45 55.86,12.5 Z" fill="#FCE193"/>
  <path d="M66.07,11.78 C66.22,12.44 68.08,13.22 68.37,13.55 C68.66,13.89 70,15.08 70,15.08 C70,15.08 73.07,14.31 74.89,14.79 C76.71,15.27 77.57,16.56 78.1,16.23 C78.63,15.89 78.34,14.46 78.05,13.98 C77.76,13.5 77.19,12.59 77.19,12.59 C77.19,12.59 79.95,8.31 77.09,7.6 C73.02,6.59 72.2,10.72 71.67,10.81 C71.14,10.9 69.61,9.28 67.93,9.52 C66.26,9.77 65.87,10.92 66.07,11.78 Z" fill="#FCE193"/>
  <path d="M68.37,24.1 C69.05,25.61 71.2,25.73 71.2,25.73 C71.2,25.73 72.25,29.09 74.41,29.37 C76.57,29.66 77.99,27.41 78.44,25.54 C79.02,23.14 79.03,17.95 73.69,18.01 C69.66,18.06 67.94,23.14 68.37,24.1 Z" fill="#FCE193"/>
  <path d="M89.55,41.21 C90.22,41.19 89.77,37.25 91.89,35.65 C94.18,33.92 95.97,34.24 98.32,34.4 C100.76,34.56 102.41,35.32 102.92,34.64 C103.56,33.8 103.95,27.94 100.62,27.45 C98.65,27.16 98.13,29.08 98.13,29.08 C98.13,29.08 96.12,28.65 95.01,30.66 C94.25,32.05 94.2,32.96 93.86,33.06 C93.71,33.1 88.57,25.16 84.56,29.99 C80.39,35.02 88.01,39.19 88.01,39.19 C88.01,39.19 88.26,41.26 89.55,41.21 Z" fill="#FCE193"/>
  <path d="M74.36,18.88 C74.09,19.06 73.98,23.72 74.22,23.77 C74.46,23.82 77.48,25.45 77.91,25.02 C78.34,24.59 78.34,22.38 77.57,20.95 C77.09,20.03 75.32,18.25 74.36,18.88 Z" fill="#E17A2C"/>
  <path d="M67.98,13.03 C67.94,13.52 68.6,16.1 69.37,16.19 C70.65,16.35 73.01,14.99 73.25,14.51 C73.49,14.03 73.06,12.64 71.14,12.16 C69.24,11.69 68.03,12.36 67.98,13.03 Z" fill="#E17A2C"/>
  <path d="M68.46,42.22 C69.13,42.94 71.45,40.98 72.29,41.36 C73.25,41.79 72.29,44.28 73.34,44.57 C74.39,44.86 76.5,41.45 76.26,39.97 C76.16,39.35 74.92,38.53 73.58,38.05 C72.24,37.57 70.42,37.24 69.6,37.76 C68.78,38.28 67.26,40.93 68.46,42.22 Z" fill="#E17A2C"/>
  <path d="M96.5,45.67 C96.5,45.67 96.4,42.6 97.22,41.07 C98.03,39.54 100.1,39.78 100.43,40.16 C100.76,40.54 101.92,43.32 101.92,43.32 L99.48,47.49 L96.5,45.67 Z" fill="#E17A2C"/>
  <path d="M63.35,61.35 L53.79,57.61 L53.52,57.19 C53.04,56.44 46.74,55.43 46.74,55.43 L46.18,55.32 L38.33,53.63 L38.11,53.25 C37.62,52.42 31.3,50.17 31.3,50.17 L25.36,47.77 L25.2,47.38 C24.67,46.11 20.65,43.91 20.56,44.09 L18.77,43.2 C19.24,42.25 20.73,40.68 22.99,41.59 C24.96,42.38 27.21,45.11 27.7,46.19 L30.93,47.86 C31.72,47.36 33.21,46.86 35.25,47.57 C38.21,48.61 38.99,50.9 39.6,51.85 L46.1,53.25 C46.79,52.69 48.25,51.75 50.2,52.07 C53.61,52.63 54.44,54.6 55.15,55.6 L62.64,56.24 C63.39,55.21 65.3,53.03 68.27,52.62 C71.05,52.23 73.08,53.19 73.9,54.15 L81.06,51.74 C81.66,50.81 83.73,48.18 86.97,47.59 C89.99,47.04 92.36,48.57 93.45,49.26 L98.23,46.81 C98.74,45.95 100.39,43.27 102.91,42.5 C106.06,41.55 108.08,43.54 108.17,43.61 L106.82,45.09 C106.78,45.05 100.21,48.78 100.19,48.81 L98.78,51.24 L93.26,51.6 L92.76,51.2 C92.74,51.18 82.63,53.01 82.61,53.04 L82.42,53.39 L73.38,56.43 L72.94,55.96 C72.88,55.9 63.35,61.35 63.35,61.35 Z" fill="#DFDFDF"/>
  <path d="M107.72,46.58 C107.49,46.6 105.61,43.96 103.16,44.98 C100.71,46.01 98.37,50.22 98.37,50.22 L90.74,51.42 C90.74,51.42 89.71,49.34 86.86,50.14 C84.01,50.94 81.45,54.44 81.39,54.21 C81.33,53.98 72.99,56.11 72.99,56.11 C72.99,56.11 71.34,54.27 68.4,55 C65.36,55.76 63.71,59.49 63.71,59.49 L54.24,57.61 C54.24,57.61 52.62,54.89 50.17,54.55 C47.72,54.21 46.13,55.81 46.13,55.81 L39.06,54.09 C39.06,54.09 37.98,51.13 34.9,50.1 C31.82,49.07 30.34,50.38 30.34,50.38 L25.76,47.27 C25.76,47.27 24.41,45.05 21.84,43.85 C19.28,42.65 18.54,44.75 18.54,44.75 L34.5,111.9 L65.06,124.33 L95.23,111.12 C95.25,111.13 108.41,46.51 107.72,46.58 Z" fill="#FFFFFF"/>
  <path d="M20.71,44.56 L20.69,44.49 C20.41,43.18 19.68,40.21 17.95,38.86 C15.7,37.11 14.19,38.62 14.19,38.62 L31.54,110.8 L35.78,112.42 L20.71,44.56 Z" fill="#ED3D23"/>
  <path d="M31.96,49.98 C31.96,49.98 31.69,45.47 28.13,44.4 C25.3,43.55 25.18,46.46 25.18,46.46 L39.25,113.85 L44.62,116.01 L31.96,49.98 Z" fill="#ED3D23"/>
  <path d="M47.06,55.19 C47.06,55.19 45.61,50.34 41.92,49.93 C38.23,49.52 38.6,52.62 38.6,52.62 L48.15,117.48 L53.52,119.66 L47.06,55.19 Z" fill="#ED3D23"/>
  <path d="M58.79,53.82 C54.74,53.31 54.18,57.38 54.18,57.38 L58.37,121.64 L65.09,124.34 L63.89,59.16 C63.89,59.16 63.04,54.36 58.79,53.82 Z" fill="#ED3D23"/>
  <path d="M82.04,54.07 C82.04,54.07 82.25,48.97 77.69,50.26 C73.13,51.54 72.63,55.81 72.63,55.81 L71.49,121.56 L77.15,119.05 L82.04,54.07 Z" fill="#ED3D23"/>
  <path d="M98.95,48.6 C98.95,48.6 98.76,44.6 94.85,45.41 C90.75,46.25 90.71,50.38 90.71,50.38 L83.52,116.31 L88.98,113.9 L98.95,48.6 Z" fill="#ED3D23"/>
  <path d="M109.39,39.02 C106.03,40.63 105.74,44.95 105.74,44.95 L94.29,111.57 L99.66,109.19 L113.17,39.35 C113.16,39.35 112.33,37.61 109.39,39.02 Z" fill="#ED3D23"/>
</svg>
